public/images/social_media/linkedin.svg

<svg width="19" height="19" viewBox="0 0 19 19" fill="none" xmlns="http://www.w3.org/2000/svg">
<rect x="0.115234" y="0.0163574" width="18.8852" height="18.8852" rx="9.44262" fill="#181A1C"/>
<g clip-path="url(#clip0_742_4326)">
<path d="M4.0498 5.42037C4.0498 5.06591 4.17387 4.77349 4.42198 4.5431C4.67009 4.3127 4.99265 4.19751 5.38964 4.19751C5.77954 4.19751 6.09499 4.31093 6.33603 4.53778C6.58414 4.77172 6.7082 5.07655 6.7082 5.45227C6.7082 5.79255 6.58769 6.0761 6.34666 6.30296C6.09855 6.5369 5.77245 6.65387 5.36837 6.65387H5.35774C4.96783 6.65387 4.65238 6.5369 4.41135 6.30296C4.17032 6.06902 4.0498 5.77482 4.0498 5.42037ZM4.18804 14.7248V7.62152H6.5487V14.7248H4.18804ZM7.85663 14.7248H10.2173V10.7584C10.2173 10.5103 10.2456 10.3189 10.3024 10.1842C10.4016 9.94319 10.5522 9.73937 10.7543 9.57279C10.9563 9.40619 11.2097 9.3229 11.5146 9.3229C12.3086 9.3229 12.7055 9.85812 12.7055 10.9286V14.7248H15.0662V10.6521C15.0662 9.60291 14.8181 8.80717 14.3218 8.26486C13.8256 7.72254 13.1699 7.45139 12.3546 7.45139C11.4401 7.45139 10.7277 7.84483 10.2173 8.63171V8.65298H10.2067L10.2173 8.63171V7.62152H7.85663C7.8708 7.84837 7.8779 8.55373 7.8779 9.73761C7.8779 10.9215 7.8708 12.5839 7.85663 14.7248Z" fill="white"/>
</g>
<defs>
<clipPath id="clip0_742_4326">
<rect x="4.0498" y="3.95081" width="11.0164" height="11.0164" fill="white"/>
</clipPath>
</defs>
</svg>

<svg xmlns="http://www.w3.org/2000/svg" width="19" height="19" fill="none"><rect width="18.885" height="18.885" x=".115" y=".016" fill="#181A1C" rx="9.443"/><g clip-path="url(#a)"><path fill="#fff" d="M4.05 5.42c0-.354.124-.647.372-.877.248-.23.57-.345.968-.345.39 0 .705.113.946.34.248.234.372.539.372.914 0 .34-.12.624-.361.851-.248.234-.575.35-.979.35h-.01c-.39 0-.706-.116-.947-.35a1.179 1.179 0 0 1-.361-.883Zm.138 9.305V7.622h2.36v7.103h-2.36Zm3.669 0h2.36v-3.967c0-.248.029-.44.085-.574.1-.24.25-.445.452-.611.202-.167.456-.25.76-.25.795 0 1.192.535 1.192 1.606v3.796h2.36v-4.073c0-1.05-.248-1.845-.744-2.387s-1.152-.814-1.967-.814c-.915 0-1.627.394-2.138 1.18v.022h-.01l.01-.021v-1.01h-2.36c.014.226.02.932.02 2.116 0 1.184-.006 2.846-.02 4.987Z"/></g><defs><clipPath id="a"><path fill="#fff" d="M4.05 3.951h11.016v11.016H4.05z"/></clipPath></defs></svg>
